Simply-Black-Circles/scalable/places/folder-activities.svg

<svg xmlns="http://www.w3.org/2000/svg" width="48" height="48" viewBox="0 0 12.7 12.7"><path d="M6.34.07A6.29 6.29 0 0 0 .05 6.36a6.29 6.29 0 0 0 6.3 6.29 6.29 6.29 0 0 0 6.28-6.3A6.29 6.29 0 0 0 6.34.08zm-.01.94a5.4 5.4 0 0 1 5.4 5.4 5.4 5.4 0 0 1-5.4 5.41 5.4 5.4 0 0 1-5.41-5.4A5.4 5.4 0 0 1 6.32 1zM3.57 7.54a.93.93 0 0 0-.92.93.93.93 0 0 0 .92.92.93.93 0 0 0 .93-.92.93.93 0 0 0-.93-.93zm2.78 0a.93.93 0 0 0-.93.93.93.93 0 0 0 .93.92.93.93 0 0 0 .93-.92.93.93 0 0 0-.93-.93zm2.78 0a.93.93 0 0 0-.93.93.93.93 0 0 0 .93.92.93.93 0 0 0 .92-.92.93.93 0 0 0-.92-.93z" fill="#1a1a1a"/></svg>

<?xml version="1.0" encoding="UTF-8" standalone="no"?>
<svg
   xmlns:dc="http://purl.org/dc/elements/1.1/"
   xmlns:cc="http://creativecommons.org/ns#"
   xmlns:rdf="http://www.w3.org/1999/02/22-rdf-syntax-ns#"
   xmlns:svg="http://www.w3.org/2000/svg"
   xmlns="http://www.w3.org/2000/svg"
   xmlns:sodipodi="http://sodipodi.sourceforge.net/DTD/sodipodi-0.dtd"
   xmlns:inkscape="http://www.inkscape.org/namespaces/inkscape"
   width="48"
   height="48"
   viewBox="0 0 12.7 12.7"
   version="1.1"
   id="svg4"
   sodipodi:docname="folder-activities.svg"
   inkscape:version="0.92.4 (5da689c313, 2019-01-14)">
  <metadata
     id="metadata10">
    <rdf:RDF>
      <cc:Work
         rdf:about="">
        <dc:format>image/svg+xml</dc:format>
        <dc:type
           rdf:resource="http://purl.org/dc/dcmitype/StillImage" />
        <dc:title></dc:title>
      </cc:Work>
    </rdf:RDF>
  </metadata>
  <defs
     id="defs8" />
  <sodipodi:namedview
     pagecolor="#ffffff"
     bordercolor="#666666"
     borderopacity="1"
     objecttolerance="10"
     gridtolerance="10"
     guidetolerance="10"
     inkscape:pageopacity="0"
     inkscape:pageshadow="2"
     inkscape:window-width="1085"
     inkscape:window-height="480"
     id="namedview6"
     showgrid="false"
     inkscape:zoom="4.9166667"
     inkscape:cx="2.1355932"
     inkscape:cy="24"
     inkscape:window-x="0"
     inkscape:window-y="25"
     inkscape:window-maximized="0"
     inkscape:current-layer="svg4" />
  <path
     d="M 6.34,0.07 A 6.29,6.29 0 0 0 0.05,6.36 6.29,6.29 0 0 0 6.35,12.65 6.29,6.29 0 0 0 12.63,6.35 6.29,6.29 0 0 0 6.34,0.08 Z M 6.33,1.01 a 5.4,5.4 0 0 1 5.4,5.4 5.4,5.4 0 0 1 -5.4,5.41 A 5.4,5.4 0 0 1 0.92000003,6.42 5.4,5.4 0 0 1 6.32,1 Z M 3.57,7.54 A 0.93,0.93 0 0 0 2.65,8.47 0.93,0.93 0 0 0 3.57,9.39 0.93,0.93 0 0 0 4.5,8.47 0.93,0.93 0 0 0 3.57,7.54 Z m 2.78,0 A 0.93,0.93 0 0 0 5.42,8.47 0.93,0.93 0 0 0 6.35,9.39 0.93,0.93 0 0 0 7.28,8.47 0.93,0.93 0 0 0 6.35,7.54 Z m 2.78,0 A 0.93,0.93 0 0 0 8.2,8.47 0.93,0.93 0 0 0 9.13,9.39 0.93,0.93 0 0 0 10.05,8.47 0.93,0.93 0 0 0 9.13,7.54 Z"
     id="path2"
     inkscape:connector-curvature="0"
     style="fill:#1a1a1a" />
</svg>
